X:628
T:Marjorie
C:John Ritchie, 1980
N:For the dance "Vanity Fair" by Marjorie Riley
L:1/4
M:2/2
R:Reel
S:Colin Hume's website,  colinhume.com  - chords can also be printed below the stave.
Q:1/2=112
%%MIDI chordname dim 0 3 6 9
K:Gm
P:A
|: D | "Gm"G>B "/"dG | "Cm"e/d/c/B/ "D7"AD | "Cm"E>F "/"GE | "D"D^F "/"AD |\
"Gm"G>B "/"dd | "Cm"g/f/e/d/ "F7"cA | "Bb"B/A/B/c/ "D7"dD | "Gm"G3 :|
P:B
|: "F7"=F | "Bb"B>d "/"fB | "F"A>c "/"fA | "Gm"B/A/G/^F/ "/"GB | "D"A>^F "/"D2 |\
"Bb"B>d "/"fB | "F"A/G/A/c/ "Dm"fd | "Gm"g/e/d/B/ "D7"c/A/G/^F/ | "Gm"G3 :|
P:C
|: "D7"D | "Gm"B>A "/"GD | "Cm"e>d "/"c2 | "C#dim"B>A "/"Gg | "D7"^f>g "/"ad |\
"Gm"b/a/g/=f/ "Cm"ec | "F#dim"a/g/^f/e/ "Gm"dB | "Cm"A/B/c/d/ "D7"e^F | "Gm"G4 |
"Bb"b/a/g/=f/ "F7"e/d/c/f/ | "D7"a/g/^f/e/ "Gm"d/c/B/d/ | "Gm"g/=f/e/d/ "Cm"c/B/A/G/ | "A7"A2- "D"AD |\
"Gm"G>B "/"dG | "Cm"e/d/c/B/ "D7"AD | "C#dim"BG "D7"A/G/^F/A/ | "Gm"G3 :|

